X:1
T: I'm Owre Young
C:
R:Reel
Q: 232
K:G
M:4/4
L:1/8
|:e|d2 GA BA Be|dG GA BA Ae|dB GA BA Bd|ef ge dB Be|
d2 GA BA Be|dG GA BA Ae|dB GA BA Bd|ef ge dB Bd|
g2 ge f2 fd|e2 ec dB Bd|g2 ge f2 fd|ef ge dB Bd|
ga ge fg fd|ef ge dc BA|GF GA BA Bd|ef ge dB B:|
